src/assets/duotone/Frame5.svg

<svg width="24" height="24" viewBox="0 0 24 24"  xmlns="http://www.w3.org/2000/svg">
<path d="M22.66 4.64C22.46 4.28 22.0001 4.14 21.6401 4.34L4.70008 13.66C4.58008 13.12 4.50007 12.56 4.50007 12C4.50007 7.86 7.86007 4.5 12.0001 4.5C13.4101 4.5 14.7801 4.89 15.9601 5.63C16.3101 5.85 16.7701 5.74 16.9901 5.39C17.2101 5.04 17.1001 4.58 16.7501 4.36C15.3301 3.47 13.6901 3 12.0001 3C7.04007 3 3.00007 7.04 3.00007 12C3.00007 12.81 3.11007 13.61 3.32007 14.39C3.32007 14.4 3.33008 14.4 3.33008 14.41L1.64008 15.34C1.28008 15.54 1.14009 16 1.34009 16.36C1.48009 16.61 1.73007 16.75 2.00007 16.75C2.12007 16.75 2.25005 16.72 2.36005 16.66L22.3601 5.66C22.7201 5.46 22.86 5 22.66 4.64Z" />
<path opacity="0.4" d="M22.66 8.1396C22.46 7.7796 22.0001 7.6396 21.6401 7.8396L19.5301 8.9996C19.5001 9.0196 19.4601 9.0296 19.4301 9.0596L1.64008 18.8396C1.28008 19.0396 1.14009 19.4996 1.34009 19.8596C1.48009 20.1096 1.73007 20.2496 2.00007 20.2496C2.12007 20.2496 2.25005 20.2196 2.36005 20.1596L19.3901 10.7896C19.4501 11.1896 19.5001 11.5896 19.5001 11.9996C19.5001 16.1396 16.1401 19.4996 12.0001 19.4996C10.5801 19.4996 9.21008 19.0996 8.02008 18.3596C7.67008 18.1396 7.21006 18.2496 6.99006 18.5996C6.77006 18.9496 6.87005 19.4096 7.23005 19.6296C8.66005 20.5296 10.3101 20.9996 12.0101 20.9996C16.9701 20.9996 21.0101 16.9596 21.0101 11.9996C21.0101 11.3296 20.9101 10.6796 20.7701 10.0396L22.3701 9.1596C22.7201 8.9596 22.86 8.4996 22.66 8.1396Z" />
</svg>

<?xml version="1.0" encoding="UTF-8"?>
<svg width="24" height="24" viewBox="0 0 24 24" xmlns="http://www.w3.org/2000/svg">
 <path d="m22.66 4.64c-0.2-0.36-0.6599-0.5-1.0199-0.3l-16.94 9.32c-0.12-0.54-0.20001-1.1-0.20001-1.66 0-4.14 3.36-7.5 7.5-7.5 1.41 0 2.78 0.39 3.96 1.13 0.35 0.22 0.81 0.11 1.03-0.24s0.11-0.81-0.24-1.03c-1.42-0.89-3.06-1.36-4.75-1.36-4.96 0-9 4.04-9 9 0 0.81 0.11 1.61 0.32 2.39 0 0.01 0.01001 0.01 0.01001 0.02l-1.69 0.93c-0.36 0.2-0.49999 0.66-0.29999 1.02 0.14 0.25 0.38998 0.39 0.65998 0.39 0.12 0 0.24998-0.03 0.35998-0.09l20-11c0.36-0.2 0.4999-0.66 0.2999-1.02z"/>
 <path d="m22.66 8.1396c-0.2-0.36-0.6599-0.5-1.0199-0.3l-2.11 1.16c-0.03 0.02-0.07 0.03-0.1 0.06l-17.79 9.78c-0.36 0.2-0.49999 0.66-0.29999 1.02 0.14 0.25 0.38998 0.39 0.65998 0.39 0.12 0 0.24998-0.03 0.35998-0.09l17.03-9.37c0.06 0.4 0.11 0.8 0.11 1.21 0 4.14-3.36 7.5-7.5 7.5-1.42 0-2.79-0.4-3.98-1.14-0.35-0.22-0.81002-0.11-1.03 0.24s-0.12001 0.81 0.23999 1.03c1.43 0.9 3.08 1.37 4.78 1.37 4.96 0 9-4.04 9-9 0-0.67-0.1-1.32-0.24-1.96l1.6-0.88c0.35-0.2 0.4899-0.66 0.2899-1.02z" opacity=".4"/>
</svg>
